X: 1559
T: the Kildare Fancy   #2
T: ro\.ga cille-nara.
R: hornpipe
%S: s:4 b:16(4+4+4+4)
B: O'Neill's 1850 #1559
O: Ennis
Z: Michael Hogan
Z: Michael D. Long
M: 2/4
L: 1/16
K: D
"^A"|: d>B | A>FD>F A>Fd>B | (3ABA F>A f>ed>c | B>AB>f g>ef>d |[1,3 e>dc>B A2 :|[2,4 e>c (3ABc d2 :|
"^B"|: d>e | f>dc>d B>dA>F | D>dc>d f>dc>d |[1,3 e>A (3AAA f>A (3AAA | (3efe (3dcB A2 :|[2,4 e>Af>A g>Af>A | e>c (3ABc d2 :|
